v2/perps-v2/ui/public/asset-icons/EUR.svg

<svg width="42" height="42" viewBox="0 0 42 42" fill="none" xmlns="http://www.w3.org/2000/svg">
<circle cx="21" cy="21" r="21" fill="#0E052F"/>
<path d="M23.7391 30.9065C22.6435 30.9065 21.63 30.7513 20.6987 30.4409C19.7674 30.1122 18.9365 29.6465 18.2061 29.0439C17.4939 28.4413 16.8913 27.72 16.3983 26.88C15.9235 26.0217 15.5857 25.0722 15.3848 24.0313H12.7826V22.0317H15.1657C15.1474 21.9039 15.1383 21.767 15.1383 21.6209C15.1383 21.4748 15.1383 21.3196 15.1383 21.1552C15.1383 20.9543 15.1383 20.7626 15.1383 20.58C15.1565 20.3791 15.1657 20.2148 15.1657 20.087H12.7826V18.0874H15.3574C15.5583 17.01 15.9052 16.0422 16.3983 15.1839C16.9096 14.3257 17.5304 13.6043 18.2609 13.02C19.0096 12.4174 19.8587 11.9609 20.8083 11.6504C21.7578 11.34 22.7804 11.1848 23.8761 11.1848C25.1361 11.1848 26.1861 11.3491 27.0261 11.6778C27.8661 12.0065 28.5783 12.4174 29.1626 12.9104L27.7931 15.54C27.1722 15.0652 26.5513 14.7365 25.9304 14.5539C25.3278 14.3713 24.6522 14.28 23.9035 14.28C22.5704 14.28 21.4565 14.6087 20.5618 15.2661C19.667 15.9235 19.0918 16.8639 18.8361 18.0874H26.807L25.8483 20.087H18.617C18.617 20.2513 18.6078 20.4157 18.5896 20.58C18.5896 20.7443 18.5896 20.8996 18.5896 21.0457C18.5896 21.21 18.5896 21.3743 18.5896 21.5387C18.6078 21.703 18.617 21.8674 18.617 22.0317H25.3004L24.3418 24.0313H18.8361C19.0918 25.2365 19.6578 26.1678 20.5344 26.8252C21.4291 27.4826 22.5339 27.8113 23.8487 27.8113C24.6704 27.8113 25.3826 27.7109 25.9852 27.51C26.6061 27.2909 27.1357 27.017 27.5739 26.6883L29.1626 29.1809C28.5052 29.747 27.7291 30.1761 26.8344 30.4683C25.9578 30.7604 24.9261 30.9065 23.7391 30.9065Z" fill="white"/>
</svg>

<svg width="42" height="42" fill="none" xmlns="http://www.w3.org/2000/svg"><circle cx="21" cy="21" r="21" fill="#0E052F"/><path d="M23.74 30.907c-1.096 0-2.11-.156-3.041-.466a8.134 8.134 0 0 1-2.493-1.397 8.33 8.33 0 0 1-1.808-2.164 9.601 9.601 0 0 1-1.013-2.849h-2.602v-2h2.383a2.902 2.902 0 0 1-.028-.41V20.58c.018-.2.028-.365.028-.493h-2.383v-2h2.574c.201-1.077.548-2.045 1.041-2.903a7.943 7.943 0 0 1 1.863-2.164 7.978 7.978 0 0 1 2.547-1.37 9.816 9.816 0 0 1 3.068-.465c1.26 0 2.31.164 3.15.493.84.329 1.552.74 2.137 1.232l-1.37 2.63c-.62-.475-1.242-.803-1.863-.986-.602-.183-1.278-.274-2.026-.274-1.334 0-2.448.329-3.342.986-.895.658-1.47 1.598-1.726 2.821h7.971l-.959 2h-7.231c0 .164-.01.329-.027.493v.959c.018.164.027.328.027.493H25.3l-.958 2h-5.506c.256 1.204.822 2.136 1.698 2.793.895.658 2 .986 3.315.986.821 0 1.534-.1 2.136-.301.621-.22 1.15-.493 1.589-.822l1.589 2.493a6.718 6.718 0 0 1-2.329 1.287c-.876.292-1.908.439-3.095.439Z" fill="#fff"/></svg>
